X: 331
M: 2/2
L: 1/8
K: D
|: "2.F."d2A2 |\
!+!B2A2 d2A2 | !+!B2A2 d2A2 | B2A2 G2F2 | E4 d2A2 |\
!+!B2A2 d2A2 | !+!B2A2 d2A2 | B2A2 G2F2 | E4 F2B2 |
^A2B2 c2d2 | !+!c4 !+!f4 | edcB dcB^A | B4 F2B2 |\
^A2B2 c2d2 | c4 f4 | edcB dcB^A | B4 A2dc |

